icons/castro.svg

<svg width="32" height="32" viewBox="0 0 32 32" fill="none" xmlns="http://www.w3.org/2000/svg">
<path fill-rule="evenodd" clip-rule="evenodd" d="M3.36627 28.6337C0.910867 26.1783 0 22.1783 0 16C0 9.82167 0.910867 5.82167 3.36627 3.36627C5.82167 0.910867 9.82167 0 16 0C22.1783 0 26.1783 0.910867 28.6337 3.36627C31.0891 5.82167 32 9.82167 32 16C32 22.1783 31.0891 26.1783 28.6337 28.6337C26.1783 31.0891 22.1783 32 16 32C9.82167 32 5.82167 31.0891 3.36627 28.6337Z" fill="url(#paint0_linear_29_131)"/>
<path fill-rule="evenodd" clip-rule="evenodd" d="M16 3.3353C22.9956 3.3353 28.6667 9.00636 28.6667 16.002C28.6667 22.9976 22.9956 28.6686 16 28.6686C9.0044 28.6686 3.33334 22.9976 3.33334 16.002C3.33334 9.00636 9.0044 3.3353 16 3.3353Z" fill="url(#paint1_linear_29_131)"/>
<path fill-rule="evenodd" clip-rule="evenodd" d="M19.1466 20.2797L21.2705 23.2252H21.2707C24.4265 20.9312 25.7452 16.8653 24.5365 13.1558C23.3277 9.44631 19.8669 6.9378 15.9654 6.94337C12.0639 6.94893 8.61024 9.4673 7.41212 13.1802C6.214 16.8932 7.54427 20.9553 10.7066 23.2402L12.8316 20.2925C10.9494 18.9288 10.159 16.5085 10.8735 14.2968C11.5881 12.0851 13.6452 10.5847 15.9694 10.58C18.2937 10.5753 20.3569 12.0673 21.0804 14.2761C21.8039 16.4849 21.0233 18.9084 19.1466 20.2797ZM18.1635 15.9382C18.1635 14.7423 17.1941 13.7728 15.9981 13.7728C15.4238 13.7728 14.873 14.0009 14.4669 14.407C14.0608 14.8131 13.8327 15.3639 13.8327 15.9382C13.8327 17.1341 14.8022 18.1036 15.9981 18.1036C17.194 18.1036 18.1635 17.1341 18.1635 15.9382Z" fill="url(#paint2_linear_29_131)"/>
<defs>
<linearGradient id="paint0_linear_29_131" x1="0" y1="0" x2="0" y2="32" gradientUnits="userSpaceOnUse">
<stop stop-color="#00CCBF"/>
<stop offset="1" stop-color="#00B265"/>
</linearGradient>
<linearGradient id="paint1_linear_29_131" x1="3.33516" y1="3.3176" x2="3.33516" y2="28.6565" gradientUnits="userSpaceOnUse">
<stop stop-color="#151515"/>
<stop offset="1" stop-color="#353535"/>
</linearGradient>
<linearGradient id="paint2_linear_29_131" x1="6.95419" y1="6.94548" x2="6.95419" y2="23.2457" gradientUnits="userSpaceOnUse">
<stop offset="0.3" stop-color="white"/>
<stop offset="1" stop-color="#9CC0B7"/>
</linearGradient>
</defs>
</svg>

<svg xmlns="http://www.w3.org/2000/svg" width="32" height="32" fill="none" viewBox="0 0 32 32">
  <path fill="url(#a)" fill-rule="evenodd" d="M3.366 28.634C.911 26.178 0 22.178 0 16S.91 5.822 3.366 3.366C5.822.911 9.822 0 16 0s10.178.91 12.634 3.366C31.089 5.822 32 9.822 32 16s-.91 10.178-3.366 12.634C26.178 31.089 22.178 32 16 32s-10.178-.91-12.634-3.366Z" clip-rule="evenodd"/>
  <path fill="url(#b)" fill-rule="evenodd" d="M16 3.335c6.996 0 12.667 5.671 12.667 12.667 0 6.995-5.671 12.667-12.667 12.667-6.996 0-12.667-5.672-12.667-12.667C3.333 9.006 9.004 3.335 16 3.335Z" clip-rule="evenodd"/>
  <path fill="url(#c)" fill-rule="evenodd" d="m19.147 20.28 2.123 2.945a9.001 9.001 0 1 0-10.563.015l2.125-2.947a5.367 5.367 0 1 1 6.315-.013Zm-.983-4.342a2.165 2.165 0 1 0-4.331 0 2.165 2.165 0 0 0 4.33 0Z" clip-rule="evenodd"/>
  <defs>
    <linearGradient id="a" x1="0" x2="0" y1="0" y2="32" gradientUnits="userSpaceOnUse">
      <stop stop-color="#00CCBF"/>
      <stop offset="1" stop-color="#00B265"/>
    </linearGradient>
    <linearGradient id="b" x1="3.335" x2="3.335" y1="3.318" y2="28.657" gradientUnits="userSpaceOnUse">
      <stop stop-color="#151515"/>
      <stop offset="1" stop-color="#353535"/>
    </linearGradient>
    <linearGradient id="c" x1="6.954" x2="6.954" y1="6.945" y2="23.246" gradientUnits="userSpaceOnUse">
      <stop offset=".3" stop-color="#fff"/>
      <stop offset="1" stop-color="#9CC0B7"/>
    </linearGradient>
  </defs>
</svg>
